src/assets/icons/tablet.svg

<svg width="14" height="14" viewBox="0 0 14 14" fill="none" xmlns="http://www.w3.org/2000/svg">
<g id="tablet">
<g clip-path="url(#clip0_156_4498)">
<path id="Vector" fill-rule="evenodd" clip-rule="evenodd" d="M1.99999 1.4C1.99999 1.28954 2.08953 1.2 2.19999 1.2H11.8C11.9104 1.2 12 1.28954 12 1.4V12.6C12 12.7105 11.9104 12.8 11.8 12.8H2.19999C2.08953 12.8 1.99999 12.7105 1.99999 12.6V1.4ZM2.19999 0C1.42679 0 0.799988 0.626801 0.799988 1.4V12.6C0.799988 13.3732 1.42679 14 2.19999 14H11.8C12.5732 14 13.2 13.3732 13.2 12.6V1.4C13.2 0.626801 12.5732 0 11.8 0H2.19999ZM6.19999 10.2C6.19999 10.64 6.55999 11 6.99999 11C7.43999 11 7.79999 10.64 7.79999 10.2C7.79999 9.76 7.43999 9.4 6.99999 9.4C6.55999 9.4 6.19999 9.76 6.19999 10.2Z" fill="black"/>
</g>
</g>
<defs>
<clipPath id="clip0_156_4498">
<rect width="14" height="14" fill="white"/>
</clipPath>
</defs>
</svg>

<svg xmlns="http://www.w3.org/2000/svg" fill="none" viewBox="0 0 14 14"><g clip-path="url(#a)"><path fill="#000" fill-rule="evenodd" d="M2 1.4c0-.11.09-.2.2-.2h9.6c.11 0 .2.09.2.2v11.2a.2.2 0 0 1-.2.2H2.2a.2.2 0 0 1-.2-.2zM2.2 0A1.4 1.4 0 0 0 .8 1.4v11.2A1.4 1.4 0 0 0 2.2 14h9.6a1.4 1.4 0 0 0 1.4-1.4V1.4A1.4 1.4 0 0 0 11.8 0zm4 10.2c0 .44.36.8.8.8s.8-.36.8-.8-.36-.8-.8-.8-.8.36-.8.8" clip-rule="evenodd"/></g><defs><clipPath id="a"><path fill="#fff" d="M0 0h14v14H0z"/></clipPath></defs></svg>
